X:1
T:Roy's Wife of Aldivalloch
B:Scots Minstrelsie A National Monument of Scottish Song Volume1. Edited and Arranged by John Greig
N:Taken from http://www.electricscotland.com/music/minstrelsie/
M:C
L:1/8
K:C
(G/E3/)  E3/ D/ E3/ D/ E/ F3/|(G/E3/) E3/ C/ D3/ C/ D/ E3/|
w:Roy's* wife of Al-di-val-loch, Roy's_ wife of Al-di-val-loch
G3/ G/ {E/}D3/ C/ c3/ d/ {c/4d/4}He3/ d/|c3/ A/ G3/ E/  {E/}D3/ C/ D/ HE3/|
w:Wat ye how she chea-ted me, As I cam o'er the braes o' Bal-loch?
G/|G3/ A/ c3/ e/ (d/c/) (d/e/) c3/ G/|G3/ A/ c3/ E/ {E/}D3/ C/ D/ E G/|
w:She vow'd, she swore she wad* be* mine, She said she lo'ed me best o' o-ny; But
G3/ (A/4B/4) c3/ e/ (d/c/) (f/e/) {e/}Hd3/ c/|{c/4d/4}e3/ d/ c E {E/}D3/ C/ D/ E3/|]
w:O the* fic-kle faith* less* quean, She's ta'en the carle an' left her John-nie